X:13555
T:Presbyterian Jigg
B:Walsh
M:4/4
L:1/8
N:
K:G
B2 G4 Bc| d2 G2 d2 G2| B2 G4 Bc| d4 B4| c2 A4 cd| e2 A2 e2 A2 |E2 A4 cd|\
e4 B4:: G2 g4 fg|agfe d2 cB| A2 a4  ga |bagf efga| G2 g4 fg| egfe d2 g2|\
fgef d2 g2|fgef d2 g2|f4 e4:|
